source/svgs/bowtie/uEA59-globe.svg

<svg xmlns="http://www.w3.org/2000/svg" viewBox="0 0 448 448" enable-background="new 0 0 448 448"><path d="M224 .156c-123.437 0-223.844 100.407-223.844 223.844s100.407 223.844 223.844 223.844 223.844-100.406 223.844-223.844-100.406-223.844-223.844-223.844zm0 416c-26.215 0-54.459-36.805-69.764-96.156h139.527c-15.304 59.352-43.548 96.156-69.763 96.156zm-76.293-128.156c-3.107-19.717-4.926-41.109-4.926-64 0-22.889 1.818-44.283 4.928-64h152.582c3.109 19.717 4.928 41.111 4.928 64 0 22.891-1.818 44.283-4.926 64h-152.586zm76.293-256.156c26.213 0 54.457 36.807 69.762 96.156h-139.524c15.305-59.35 43.549-96.156 69.762-96.156zm108.326 128.156h72.639c7.115 20.055 11.191 41.535 11.191 64s-4.074 43.945-11.188 64h-72.643c2.941-20.223 4.58-41.65 4.58-64s-1.637-43.777-4.579-64zm57.879-32h-63.971c-7.801-33.303-19.557-61.84-34.186-83.482 41.516 15.795 76.128 45.49 98.157 83.482zm-234.256-83.479c-14.629 21.645-26.385 50.178-34.183 83.479h-63.969c22.029-37.988 56.642-67.682 98.152-83.479zm-112.912 115.479h72.637c-2.941 20.223-4.58 41.65-4.58 64s1.639 43.777 4.58 64h-72.641c-7.115-20.055-11.189-41.535-11.189-64s4.076-43.945 11.193-64zm14.756 160h63.971c7.799 33.303 19.555 61.836 34.184 83.479-41.512-15.795-76.126-45.487-98.155-83.479zm234.258 83.482c14.629-21.643 26.385-50.18 34.186-83.482h63.973c-22.03 37.994-56.642 67.688-98.159 83.482z"/></svg>

<svg xmlns="http://www.w3.org/2000/svg" viewBox="0 0 448 448"><path d="M224 .156C100.563.156.156 100.563.156 224S100.563 447.844 224 447.844 447.844 347.438 447.844 224 347.438.156 224 .156zm0 416c-26.215 0-54.459-36.805-69.764-96.156h139.527c-15.304 59.352-43.548 96.156-69.763 96.156zM147.707 288c-3.107-19.717-4.926-41.109-4.926-64 0-22.889 1.818-44.283 4.928-64h152.582c3.109 19.717 4.928 41.111 4.928 64 0 22.891-1.818 44.283-4.926 64H147.707zM224 31.844c26.213 0 54.457 36.807 69.762 96.156H154.238C169.543 68.65 197.787 31.844 224 31.844zM332.326 160h72.639c7.115 20.055 11.191 41.535 11.191 64s-4.074 43.945-11.188 64h-72.643c2.941-20.223 4.58-41.65 4.58-64s-1.637-43.777-4.579-64zm57.879-32h-63.971c-7.801-33.303-19.557-61.84-34.186-83.482 41.516 15.795 76.128 45.49 98.157 83.482zM155.949 44.521C141.32 66.166 129.564 94.699 121.766 128H57.797c22.029-37.988 56.642-67.682 98.152-83.479zM43.037 160h72.637c-2.941 20.223-4.58 41.65-4.58 64s1.639 43.777 4.58 64H43.033c-7.115-20.055-11.189-41.535-11.189-64s4.076-43.945 11.193-64zm14.756 160h63.971c7.799 33.303 19.555 61.836 34.184 83.479-41.512-15.795-76.126-45.487-98.155-83.479zm234.258 83.482c14.629-21.643 26.385-50.18 34.186-83.482h63.973c-22.03 37.994-56.642 67.688-98.159 83.482z"/></svg>
